svgs/sharp-light/bridge-circle-exclamation.svg

<svg xmlns="http://www.w3.org/2000/svg" viewBox="0 0 640 512"><!--! Font Awesome Pro 6.4.0 by @fontawesome - https://fontawesome.com License - https://fontawesome.com/license (Commercial License) Copyright 2023 Fonticons, Inc. --><path d="M48 32h64 32 96 32 96 32 96 32 64 16V64H592 528v64h64 16v32H592 528 496 400 368 272 240 144 112 48 32V128H48h64V64H48 32V32H48zM496 64H400v64h96V64zM368 64H272v64h96V64zM240 64H144v64h96V64zM48 240H64c53 0 96 43 96 96V448h64V336c0-53 43-96 96-96c16.1 0 31.2 4 44.6 10.9c-7.2 8.1-13.7 16.9-19.3 26.2c-7.7-3.3-16.3-5.2-25.2-5.2c-35.3 0-64 28.7-64 64V464v16H240 144 128V464 336c0-35.3-28.7-64-64-64H48 32V240H48zM608 368a112 112 0 1 0 -224 0 112 112 0 1 0 224 0zm-256 0a144 144 0 1 1 288 0 144 144 0 1 1 -288 0zm160 80H480V416h32v32zm0-160v16 80 16H480V384 304 288h32z"/></svg>

<svg xmlns="http://www.w3.org/2000/svg" viewBox="0 0 640 512"><!--! Font Awesome Pro 6.6.0 by @fontawesome - https://fontawesome.com License - https://fontawesome.com/license (Commercial License) Copyright 2024 Fonticons, Inc. --><path d="M48 32l64 0 32 0 96 0 32 0 96 0 32 0 96 0 32 0 64 0 16 0 0 32-16 0-64 0 0 64 64 0 16 0 0 32-16 0-64 0-32 0-96 0-32 0-96 0-32 0-96 0-32 0-64 0-16 0 0-32 16 0 64 0 0-64L48 64 32 64l0-32 16 0zM496 64l-96 0 0 64 96 0 0-64zM368 64l-96 0 0 64 96 0 0-64zM240 64l-96 0 0 64 96 0 0-64zM48 240l16 0c53 0 96 43 96 96l0 112 64 0 0-112c0-53 43-96 96-96c16.1 0 31.2 4 44.6 10.9c-7.2 8.1-13.7 16.9-19.3 26.2c-7.7-3.3-16.3-5.2-25.2-5.2c-35.3 0-64 28.7-64 64l0 128 0 16-16 0-96 0-16 0 0-16 0-128c0-35.3-28.7-64-64-64l-16 0-16 0 0-32 16 0zM608 368a112 112 0 1 0 -224 0 112 112 0 1 0 224 0zm-256 0a144 144 0 1 1 288 0 144 144 0 1 1 -288 0zm160 80l-32 0 0-32 32 0 0 32zm0-160l0 16 0 80 0 16-32 0 0-16 0-80 0-16 32 0z"/></svg>
